assets/img/githubIcon.svg

<svg viewBox="0 0 512 512" fill="none" xmlns="http://www.w3.org/2000/svg"><path fill-rule="evenodd" clip-rule="evenodd" d="M256 0C114.56 0 0 114.56 0 256c0 113.28 73.28 208.96 175.04 242.88 12.8 2.24 17.6-5.44 17.6-12.16 0-6.08-.32-26.24-.32-47.68-64.32 11.84-80.96-15.68-86.08-30.08-2.88-7.36-15.36-30.08-26.24-36.16-8.96-4.8-21.76-16.64-.32-16.96 20.16-.32 34.56 18.56 39.36 26.24 23.04 38.72 59.84 27.84 74.56 21.12 2.24-16.64 8.96-27.84 16.32-34.24-56.96-6.4-116.48-28.48-116.48-126.4 0-27.84 9.92-50.88 26.24-68.8-2.56-6.4-11.52-32.64 2.56-67.84 0 0 21.44-6.72 70.4 26.24 20.48-5.76 42.24-8.64 64-8.64 21.76 0 43.52 2.88 64 8.64 48.96-33.28 70.4-26.24 70.4-26.24 14.08 35.2 5.12 61.44 2.56 67.84 16.32 17.92 26.24 40.64 26.24 68.8 0 98.24-59.84 120-116.8 126.4 9.28 8 17.28 23.36 17.28 47.36 0 34.24-.32 61.76-.32 70.4 0 6.72 4.8 14.72 17.6 12.16A256.424 256.424 0 0 0 512 256C512 114.56 397.44 0 256 0Z" fill="#000"/></svg>

<svg viewBox="0 0 512 512" fill="none" xmlns="http://www.w3.org/2000/svg">
<path fill-rule="evenodd" clip-rule="evenodd" d="M256 0C114.56 0 0 114.56 0 256C0 369.28 73.28 464.96 175.04 498.88C187.84 501.12 192.64 493.44 192.64 486.72C192.64 480.64 192.32 460.48 192.32 439.04C128 450.88 111.36 423.36 106.24 408.96C103.36 401.6 90.88 378.88 80 372.8C71.04 368 58.24 356.16 79.68 355.84C99.84 355.52 114.24 374.4 119.04 382.08C142.08 420.8 178.88 409.92 193.6 403.2C195.84 386.56 202.56 375.36 209.92 368.96C152.96 362.56 93.44 340.48 93.44 242.56C93.44 214.72 103.36 191.68 119.68 173.76C117.12 167.36 108.16 141.12 122.24 105.92C122.24 105.92 143.68 99.2 192.64 132.16C213.12 126.4 234.88 123.52 256.64 123.52C278.4 123.52 300.16 126.4 320.64 132.16C369.6 98.88 391.04 105.92 391.04 105.92C405.12 141.12 396.16 167.36 393.6 173.76C409.92 191.68 419.84 214.4 419.84 242.56C419.84 340.8 360 362.56 303.04 368.96C312.32 376.96 320.32 392.32 320.32 416.32C320.32 450.56 320 478.08 320 486.72C320 493.44 324.8 501.44 337.6 498.88C388.42 481.722 432.58 449.06 463.865 405.49C495.15 361.921 511.985 309.638 512 256C512 114.56 397.44 0 256 0Z" fill="black"/>
</svg>
